X: 640
T: Xiaoguafu shangfen
L: 1/8
M: 2/4
K: A
cc2c [I:setbarnb 1]| 
cB3 | 
c> B A F | 
A4 | 
A> c B A | 
B3F | 
E4 | 
F2A F | 
E4 |]

@@@ Tune index: 9514
